X:1
T:Title
%%score 1 2
L:1/8
Q:1/4=78
M:2/4
K:A
V:1 treble nm="Grand Piano, Soprano"
V:2 bass nm="Choir Pad, Córdoba, 87.87 D"
V:1
 [Ec]>[Ec] [Fd][Ec] | [Ec]>[Ec] [Fd][Ec] | [Ac][GB] [GB][FA] | [Ac][GB] [GB]2 | %4
w: By~William~Batchelder~Bradbury,~1864 * * *||||
 [Ec]>[Ec] [Fd][Ec] | [Ec][Ec] [Fd][Ec] | [Ec][DB] [DB][CA] | [Ec][DB] [CA]2 | [GB]>[GB] [GB][GB] | %9
w: |||||
 [GB][Ac] [GB]E | [GB]>[GB] [GB][GB] | [GB][Ac] [Bd]2 | c>c dc | BA GF | CF AG | F^E F2 | %16
w: |||||||
 [Ec]>[Ec] [Fd][Ec] | [Ec]>[Ec] [Fd][Ec] | [Ac][GB] [GB][FA] | [Ac][GB] [GB]2 | %20
w: ||||
 [Ec]>[Ec] [Fd][Ec] | [Ec][Ec] [Fd][Ec] | [Ec][DB] [DB][CA] | [Ec][DB] [CA]2- | [CA]4 |] %25
w: |||||
V:2
 A,>A, A,A, | A,>A, A,A, | [E,A,][E,B,] [E,B,][E,E] | [A,E][E,E] [E,E]2 | A,>A, A,A, | A,A, A,A, | %6
 A,[E,G,] [E,G,][F,A,] | [E,A,][E,G,] [A,,A,]2 | E,>E, E,E, | E,E, E,E, | E,>E, E,E, | E,E, E,2 | %12
 C>C DC | B,[K:bass]A, G,F, | C,F, A,G, | F,^E, F,2 | A,>A, A,A, | A,>A, A,A, | %18
 [E,A,][E,B,] [E,B,][E,E] | [A,E][E,E] [E,E]2 | A,>A, A,A, | A,A, A,A, | A,[E,G,] [E,G,][F,A,] | %23
 [E,A,][E,G,] [A,,A,]2- | [A,,A,]4 |] %25

